svgs/magic_earth.svg

<svg viewBox="0 0 192 192" xml:space="preserve" style="fill-rule:evenodd;clip-rule:evenodd;stroke-linejoin:round;stroke-miterlimit:2" xmlns="http://www.w3.org/2000/svg"><path d="M1362 349.652h-10.9c-3.31 0-6 2.689-6 6 0 3.312 2.69 6 6 6h10.9v10.902c0 3.311 2.69 6 6 6 3.32 0 6-2.689 6-6v-10.902h10.91c3.31 0 6-2.688 6-6 0-3.311-2.69-6-6-6H1374v-10.901c0-3.312-2.68-6-6-6-3.31 0-6 2.688-6 6v10.901Zm-31.63-7.534c-18.08-9.004-30.37-24.368-30.37-42.084 0-28.414 30.85-50.588 68-50.588 37.16 0 68 22.174 68 50.588 0 17.529-12.03 32.758-29.8 41.799a5.994 5.994 0 0 0-2.62 8.068 5.993 5.993 0 0 0 8.06 2.627c22.11-11.246 36.36-30.689 36.36-52.494 0-34.053-35.46-62.588-80-62.588-44.53 0-80 28.535-80 62.588 0 22.02 14.55 41.634 37.02 52.826a6.008 6.008 0 0 0 8.05-2.696 5.996 5.996 0 0 0-2.7-8.046Zm37.51-24.367.12-.001c12.44 0 27.71 9.4 27.71 9.4a6.001 6.001 0 0 0 7.3-.849 5.998 5.998 0 0 0 1.01-7.278l-30.81-53.596a6.005 6.005 0 0 0-10.41 0l-30.81 53.596a5.998 5.998 0 0 0 1.01 7.278 5.988 5.988 0 0 0 7.29.849s15.16-9.328 27.59-9.399Zm-.07-12c-5.28.03-10.98 1.393-16.16 3.154l16.35-28.449 16.36 28.453c-5.25-1.783-11.02-3.159-16.36-3.159 0 0-3.5.02-.19.001Z" style="fill-rule:evenodd;clip-rule:evenodd;stroke-linejoin:round;stroke-miterlimit:2" transform="translate(-1272 -212)"/></svg>

<?xml version="1.0" encoding="UTF-8" standalone="no"?>
<svg
   width="100%"
   height="100%"
   viewBox="0 0 192 192"
   version="1.1"
   xml:space="preserve"
   style="fill-rule:evenodd;clip-rule:evenodd;stroke-linejoin:round;stroke-miterlimit:2;"
   id="svg1343"
   sodipodi:docname="magic_earth.svg"
   inkscape:version="1.2.1 (9c6d41e410, 2022-07-14)"
   xmlns:inkscape="http://www.inkscape.org/namespaces/inkscape"
   xmlns:sodipodi="http://sodipodi.sourceforge.net/DTD/sodipodi-0.dtd"
   xmlns="http://www.w3.org/2000/svg"
   xmlns:svg="http://www.w3.org/2000/svg"><defs
   id="defs1347" /><sodipodi:namedview
   id="namedview1345"
   pagecolor="#ffffff"
   bordercolor="#000000"
   borderopacity="0.25"
   inkscape:showpageshadow="2"
   inkscape:pageopacity="0.0"
   inkscape:pagecheckerboard="0"
   inkscape:deskcolor="#d1d1d1"
   showgrid="false"
   inkscape:zoom="5.3489583"
   inkscape:cx="95.906524"
   inkscape:cy="95.906524"
   inkscape:window-width="1274"
   inkscape:window-height="1303"
   inkscape:window-x="1282"
   inkscape:window-y="36"
   inkscape:window-maximized="0"
   inkscape:current-layer="svg1343" />
    <path
   d="M1362,349.652L1351.1,349.652C1347.79,349.652 1345.1,352.341 1345.1,355.652C1345.1,358.964 1347.79,361.652 1351.1,361.652L1362,361.652L1362,372.554C1362,375.865 1364.69,378.554 1368,378.554C1371.32,378.554 1374,375.865 1374,372.554L1374,361.652L1384.91,361.652C1388.22,361.652 1390.91,358.964 1390.91,355.652C1390.91,352.341 1388.22,349.652 1384.91,349.652L1374,349.652L1374,338.751C1374,335.439 1371.32,332.751 1368,332.751C1364.69,332.751 1362,335.439 1362,338.751L1362,349.652ZM1330.37,342.118C1312.29,333.114 1300,317.75 1300,300.034C1300,271.62 1330.85,249.446 1368,249.446C1405.16,249.446 1436,271.62 1436,300.034C1436,317.563 1423.97,332.792 1406.2,341.833C1403.25,343.334 1402.07,346.95 1403.58,349.901C1405.08,352.853 1408.69,354.029 1411.64,352.528C1433.75,341.282 1448,321.839 1448,300.034C1448,265.981 1412.54,237.446 1368,237.446C1323.47,237.446 1288,265.981 1288,300.034C1288,322.054 1302.55,341.668 1325.02,352.86C1327.99,354.336 1331.59,353.128 1333.07,350.164C1334.55,347.199 1333.34,343.594 1330.37,342.118ZM1367.88,317.751C1367.87,317.751 1368,317.75 1368,317.75C1380.44,317.75 1395.71,327.15 1395.71,327.15C1398.06,328.564 1401.06,328.214 1403.01,326.301C1404.97,324.387 1405.38,321.394 1404.02,319.023L1373.21,265.427C1372.13,263.565 1370.15,262.418 1368,262.418C1365.86,262.418 1363.87,263.565 1362.8,265.427L1331.99,319.023C1330.63,321.394 1331.04,324.387 1333,326.301C1334.95,328.214 1337.95,328.564 1340.29,327.15C1340.29,327.15 1355.45,317.822 1367.88,317.751ZM1367.81,305.751C1362.53,305.781 1356.83,307.144 1351.65,308.905C1351.65,308.906 1368,280.456 1368,280.456C1368,280.456 1384.36,308.909 1384.36,308.909C1379.11,307.126 1373.34,305.75 1368,305.75C1368,305.75 1364.5,305.77 1367.81,305.751Z"
   id="path1337"
   style="fill-rule:evenodd;clip-rule:evenodd;stroke-linejoin:round;stroke-miterlimit:2"
   transform="translate(-1272,-212)"
   inkscape:label="magic_earth" />
</svg>
